assets/2023/icons/erbFile.svg

<svg width="16" height="16" viewBox="0 0 16 16" fill="none" xmlns="http://www.w3.org/2000/svg">
<path d="M10.3071 4.01998H11.4984L5.66731 12H4.47601L10.3071 4.01998ZM5.97511 7.73638C5.60271 7.73638 5.26831 7.65468 4.97191 7.49128C4.67931 7.32788 4.44941 7.09988 4.28221 6.80728C4.11881 6.51468 4.03711 6.18218 4.03711 5.80978C4.03711 5.43738 4.11881 5.10488 4.28221 4.81228C4.44941 4.51968 4.67931 4.29168 4.97191 4.12828C5.26831 3.96488 5.60271 3.88318 5.97511 3.88318C6.35511 3.88318 6.69141 3.96488 6.98401 4.12828C7.28041 4.29168 7.51031 4.51968 7.67371 4.81228C7.84091 5.10488 7.92451 5.43738 7.92451 5.80978C7.92451 6.18218 7.84091 6.51468 7.67371 6.80728C7.51031 7.09988 7.28041 7.32788 6.98401 7.49128C6.69141 7.65468 6.35511 7.73638 5.97511 7.73638ZM5.97511 6.81298C6.16131 6.81298 6.32471 6.77118 6.46531 6.68758C6.60971 6.60018 6.72181 6.48048 6.80161 6.32848C6.88141 6.17648 6.92131 6.00358 6.92131 5.80978C6.92131 5.61598 6.88141 5.44308 6.80161 5.29108C6.72181 5.13528 6.60971 5.01558 6.46531 4.93198C6.32471 4.84458 6.16131 4.80088 5.97511 4.80088C5.79651 4.80088 5.63501 4.84458 5.49061 4.93198C5.35001 5.01558 5.23981 5.13528 5.16001 5.29108C5.08401 5.44308 5.04601 5.61598 5.04601 5.80978C5.04601 6.00358 5.08401 6.17648 5.16001 6.32848C5.23981 6.48048 5.35001 6.60018 5.49061 6.68758C5.63501 6.77118 5.79651 6.81298 5.97511 6.81298ZM9.99931 12.1368C9.62691 12.1368 9.29251 12.0551 8.99611 11.8917C8.70351 11.7283 8.47361 11.5022 8.30641 11.2134C8.14301 10.9208 8.06131 10.5864 8.06131 10.2102C8.06131 9.83778 8.14301 9.50528 8.30641 9.21268C8.47361 8.92008 8.70351 8.69208 8.99611 8.52868C9.29251 8.36528 9.62691 8.28358 9.99931 8.28358C10.3793 8.28358 10.7175 8.36528 11.0139 8.52868C11.3141 8.69208 11.5459 8.92008 11.7093 9.21268C11.8765 9.50528 11.9601 9.83778 11.9601 10.2102C11.9601 10.5864 11.8765 10.9208 11.7093 11.2134C11.5459 11.5022 11.3141 11.7283 11.0139 11.8917C10.7175 12.0551 10.3793 12.1368 9.99931 12.1368ZM9.99931 11.2191C10.1855 11.2191 10.3508 11.1773 10.4952 11.0937C10.6396 11.0063 10.7517 10.8866 10.8315 10.7346C10.9151 10.5788 10.9569 10.404 10.9569 10.2102C10.9569 10.0164 10.9151 9.84348 10.8315 9.69148C10.7517 9.53948 10.6396 9.42168 10.4952 9.33808C10.3508 9.25068 10.1855 9.20698 9.99931 9.20698C9.82071 9.20698 9.65921 9.25068 9.51481 9.33808C9.37421 9.42168 9.26401 9.53948 9.18421 9.69148C9.10821 9.84348 9.07021 10.0164 9.07021 10.2102C9.07021 10.404 9.10821 10.5788 9.18421 10.7346C9.26401 10.8866 9.37421 11.0063 9.51481 11.0937C9.65921 11.1773 9.82071 11.2191 9.99931 11.2191Z" fill="#369650"/>
<path d="M2.5 10.5L0.5 8L2.5 5.5" stroke="#369650" stroke-linecap="round" stroke-linejoin="round"/>
<path d="M13.5 5.5L15.5 8L13.5 10.5" stroke="#369650" stroke-linecap="round" stroke-linejoin="round"/>
</svg>

<svg xmlns="http://www.w3.org/2000/svg" width="16" height="16" fill="none" viewBox="0 0 16 16"><path fill="#369650" d="M10.307 4.02h1.191L5.668 12H4.475zM5.975 7.736q-.559 0-1.003-.245a1.8 1.8 0 0 1-.69-.684 2 2 0 0 1-.245-.997q0-.559.245-.998a1.8 1.8 0 0 1 .69-.684q.444-.245 1.003-.245.57 0 1.009.245.444.246.69.684.25.439.25.998t-.25.997q-.246.439-.69.684a2.03 2.03 0 0 1-1.009.245m0-.923a.94.94 0 0 0 .49-.125.9.9 0 0 0 .337-.36 1.1 1.1 0 0 0 .12-.518 1.1 1.1 0 0 0-.12-.519.91.91 0 0 0-.827-.49.9.9 0 0 0-.484.131.87.87 0 0 0-.331.36 1.14 1.14 0 0 0-.114.518q0 .29.114.518.12.228.33.36a.95.95 0 0 0 .485.125M10 12.137q-.558 0-1.003-.245a1.8 1.8 0 0 1-.69-.679 2 2 0 0 1-.245-1.003q0-.559.245-.997a1.8 1.8 0 0 1 .69-.684q.445-.245 1.003-.245.57 0 1.015.245.45.245.695.684.251.439.251.997 0 .564-.25 1.003a1.73 1.73 0 0 1-.696.679 2.1 2.1 0 0 1-1.015.245m0-.918a1 1 0 0 0 .496-.125.9.9 0 0 0 .337-.36q.125-.233.125-.524t-.126-.519a.86.86 0 0 0-.336-.353.94.94 0 0 0-.496-.131.9.9 0 0 0-.484.131.87.87 0 0 0-.33.353 1.14 1.14 0 0 0-.115.52q0 .29.114.524.12.227.33.359a.95.95 0 0 0 .485.125"/><path stroke="#369650" stroke-linecap="round" stroke-linejoin="round" d="M2.5 10.5.5 8l2-2.5m11 0 2 2.5-2 2.5"/></svg>
